X:1
T:Title
%%score ( 1 2 ) { 3 | 4 }
L:1/8
M:4/4
K:Eb
V:1 treble nm="Grand Piano, Piano"
V:2 treble 
V:3 bass nm="Grand Piano, Piano"
V:4 bass 
V:1
 z4 z2[Q:1/4=100] [B,G][B,F] | [B,E]3 [B,E] [B,E][B,E][B,F][B,G] | [CG]2 [CF]4 [CF][CE] | %3
w: 1.~Day~ by~|day~ and~ with~ each~ pas sing~|mo ment,~ Strength~ I~|
 [B,D]3 [B,D] [B,D][B,E][B,F][B,D] | [B,E]6 [B,G][B,F] |[M:3/4] [B,E]3 [B,E] [B,E][B,E] | %6
w: find~ to~ meet~ my~ tri als~|here;~ Trus ting~|in~ my~ Fa ther's~|
[M:1/4] [B,F][B,G] |[M:4/4] [CG]2 [CF]4 [CF][CE] | [B,D]3 [B,D] [B,D][B,E][B,F][B,D] | %9
w: wise~ bes|tow ment,~ I've~ no~|cause~ for~ wor ry~ or~ for~|
[M:3/4] [B,E]6 |[M:1/4] [EG][EA] |[M:4/4] [EB]3 [EB] [EB][EB][Ee][Ed] | [Ed]2 [Ec]4 [DF][EG] | %13
w: fear.~|He~ whose~|heart~ is~ kind~ be yond~ all~|mea sure~ Gives~ un|
 [DA]3 [DA] [FA][Dc][EB][FA] | [EG]6 [B,G][B,F] |[M:3/4] [B,E]3 [B,E] [B,E][B,E] | %16
w: to~ each~ day~ what~ He~ deems~|best~ Lo ving|ly,~ its~ part~ of~|
[M:1/4] [B,F][B,G] |[M:4/4] [CG]2 [CF]4 [CF][CE] | [B,D]3 [B,D] DEFD |[M:3/4] [B,E]6 |] %20
w: pain~ and~|plea sure,~ Min gling~|toil~ with~ peace~ * and~ *|rest.~|
V:2
 x8 | x8 | x8 | x8 | x8 |[M:3/4] x6 |[M:1/4] x2 |[M:4/4] x8 | x8 |[M:3/4] x6 |[M:1/4] x2 | %11
[M:4/4] x8 | x8 | x8 | x8 |[M:3/4] x6 |[M:1/4] x2 |[M:4/4] x8 | z4 B,2 B,2 |[M:3/4] x6 |] %20
V:3
 z4 z2 B,A, | G,3 G, G,G,A,B, | B,2 A,4 A,F, | F,3 F, F,G,A,F, | G,6 B,A, |[M:3/4] G,3 G, G,G, | %6
[M:1/4] A,B, |[M:4/4] B,2 A,4 A,F, | F,3 F, F,G,A,F, |[M:3/4] G,6 |[M:1/4] B,B, | %11
[M:4/4] B,3 B, B,B,B,B, | B,2 A,4 B,B, | B,3 B, B,F,B,B, | B,6 B,A, |[M:3/4] G,3 G, G,G, | %16
[M:1/4] A,B, |[M:4/4] B,2 A,4 A,F, | F,3 F, F,G, A,2 |[M:3/4] G,6 |] %20
V:4
 z4 z2 E,E, | E,3 E, E,E,E,E, | A,,2 A,,4 A,,=A,, | B,,3 B,, B,,B,,B,,B,, | E,6 E,E, | %5
[M:3/4] E,3 E, E,E, |[M:1/4] E,E, |[M:4/4] A,,2 A,,4 A,,=A,, | B,,3 B,, B,,B,,B,,B,, |[M:3/4] E,6 | %10
[M:1/4] E,F, |[M:4/4] G,3 G, G,G,G,,G,, | A,,2 A,,4 A,G, | F,3 F, D,B,,C,D, | E,6 E,E, | %15
[M:3/4] E,3 E, E,E, |[M:1/4] E,E, |[M:4/4] A,,2 A,,4 A,,=A,, | B,,3 B,, B,,2 B,,2 |[M:3/4] E,6 |] %20

